X:2182
T:Polska ur E L Lindblads notbok
O:Uppland
R:Polska
B:http://www.smus.se/earkiv/fmk/browselarge.php?lang=sw&katalogid=M+177&bildnr=00097
B:E L Lindblads notbok
N: Har vissa likheter med [[Musik/191|+]] 
M:3/4
L:1/16
K:Gm
dg^fg d2c2B2A2 | cBAG ^FGAB D4 | +trill+G^FGA +trill+BABc dcBA | cBAG ^FGAB A4 |
dg^fg d2c2B2A2 | cBAG ^FGAB D4 | +trill+G^FGA BABc dcBA | BAG^F G4 z4 ::
B2>F2 D2>B,2 D2>F2 | B2>d2 fedc B4 | B2>b2 a2>g2 f3e2 | dfce dfAc B4 :|
(:musicend:)
(:music:)
